X: 15323
T: Give Us A Drink Of Water
R: slip jig
M: 9/8
K: Gmajor
D|GB/c/d gdc BAG|Bc/d/B cAA AFD|GB/c/d gdc BAG|Bc/d/B cAF G2D|
GB/c/d gdc BAG|Bc/d/B cAA AFD|GB/c/d gdc BAG|Bc/d/B cAF G2f||
g3 efg fed|g3 efg a2f|g3 bag fed|efg afd g2d|
g3 efg fed|g3 efg a3|bag agf ged|efg afd g2||

